X:1
T:Millennium Birthday Waltz (playback version)
M:3/4
L:1/8
Q:145
C:(c) Greg Anderson, 29 December 1999
R:Waltz
H:A waltz, written on the edge of the new millennium, in honor of my
H:wife, Patsy's, birthday which falls on the eve of the new year
K:G
G,>C E>B A>G|B2 A2 G2|G,>C E>B A>G|B2 c2 d2|F2 D2 D2|A2 F2 F2|
A2- AB AG|F>G F>E D>B,|G,>C E>B A>G|B2 A2 G2|d2- de dc|B2 A2 G2|
F2 D2 D2|A2 F2 E2|F2 G2 ^G2|A2 G2 F2||
E3 F G2|D3 F G2|A2 G2 F2|G2 A2 B2|E3 F G2|D3 F G2|^C3 G eB|
g2 f2 e2|f2 d2 ^c2|c2 G2 F2|E3 G g2|D3 G g2|A2 B2 F2|G2 D2 G2|
E3 G g2|D3 G g2|^C3 G eA|g2 f2 e2|f2 d2 ^c2|c2 B2 A2||
